X: 032
T: Sir David Hunter Blair's new Reel
C: attr. John French (1753-1803)
R: reel
B: "John French Collection", John French ed. p.3 #2
S: http://www.heallan.com/french.asp
Z: 2012 John Chambers <jc:trillian.mit.edu>
M: C
L: 1/8
K: A
c | A2Ec AEcA | B,B-Bc dcBc | AEGB AcBd | ca (e/f/g) (aA)A :|
g | {b}agae (dc)(BA) | GBEc dcBg | {b}agae (dc)(BA) | GBEd cA-A ||
g | agae (dc)(BA) | GBEc dcBc | AECE FABd | ca (e/f/g) (aA)A |]

%%sep 2 1 500
%%sep 1 1 500

